svg/filled/contacts.svg

<svg width="24" height="24" viewBox="0 0 24 24" fill="none" xmlns="http://www.w3.org/2000/svg">
<path opacity="0.25" d="M15.4363 14.7782C14.841 14.5276 14.1 14.2154 14.1 13.975V12.4059C14.9676 11.7528 15.5 10.6951 15.5 9.6V7.5C15.5 5.5701 13.9299 4 12 4C10.0701 4 8.5 5.5701 8.5 7.5V9.6C8.5 10.6948 9.03235 11.7528 9.9 12.4059V13.975C9.9 14.2007 9.16605 14.5147 8.57665 14.7667C7.15215 15.3757 5 16.2958 5 18.7V19.05H19V18.7C19 16.2801 16.8556 15.3764 15.4363 14.7782Z" fill="black"/>
<path d="M8.5 9.5V7.5C8.5 5.567 10.067 4 12 4C13.933 4 15.5 5.567 15.5 7.5V9.5C15.5 10.6894 14.9067 11.7402 14 12.3727V13.323C14 13.7319 14.249 14.0996 14.6286 14.2514L16.2146 14.8858C17.8969 15.5587 19 17.1881 19 19H5C5 17.1881 6.10313 15.5587 7.78543 14.8858L9.37139 14.2514C9.75105 14.0996 10 13.7319 10 13.323V12.3727C9.09326 11.7402 8.5 10.6894 8.5 9.5Z" fill="black"/>
</svg>

<svg xmlns="http://www.w3.org/2000/svg" viewBox="0 0 24 24" fill="currentColor">
  <path d="M15.436 14.778c-.595-.25-1.336-.563-1.336-.803v-1.57A3.549 3.549 0 0015.5 9.6V7.5C15.5 5.57 13.93 4 12 4S8.5 5.57 8.5 7.5v2.1a3.55 3.55 0 001.4 2.806v1.569c0 .226-.734.54-1.323.792C7.152 15.376 5 16.296 5 18.7v.35h14v-.35c0-2.42-2.144-3.324-3.564-3.922z" opacity=".25"/>
  <path d="M8.5 9.5v-2a3.5 3.5 0 117 0v2c0 1.19-.593 2.24-1.5 2.873v.95a1 1 0 00.629.928l1.586.635A4.431 4.431 0 0119 19H5a4.431 4.431 0 012.785-4.114l1.586-.635a1 1 0 00.629-.928v-.95A3.496 3.496 0 018.5 9.5z"/>
</svg>
